X:1
T: The Merry Maiden
C:
R:Jig
Q:180
K:D
M:6/8
L:1/16
dB|A2D2D2 B2A2F2|A2B2d2 e2d2B2|A2D2D2 B2A2F2|A2F2E2 E4B2|A2D2D2 B2A2F2|A2B2d2 e2d2B2|A2d2B2 A2F2E2|F2D2D2 D4dB|
A2D2D2 B2A2F2|A2B2d2 e2d2B2|A2D2D2 B2A2F2|A2F2E2 E4B2|A2D2D2 B2A2F2|A2B2d2 e2d2B2|A2d2B2 A2F2E2|F2D2D2 D4B2|
A2F2A2 d4e2|f2d2f2 e2c2A2|B2A2B2 d4e2|f2a2f2 g2f2e2|A2F2A2 d4e2|f2d2f2 e2c2A2|B2d2B2 A2F2E2|F2D2D2 D4B2|
A2F2A2 d4e2|f2d2f2 e2c2A2|B2A2B2 d4e2|f2a2f2 g2f2e2|A2F2A2 d4e2|f2d2f2 e2c2A2|B2d2B2 A2F2E2|F2D2D2 D4||
